svg/u1f422.svg

<svg viewBox="0 0 128 128" xmlns="http://www.w3.org/2000/svg">
  <path d="M112.7,59.21c0,0,3.94-2.21,4.93-2.77c0.99-0.56,4.6-2.82,5.91-0.84c0.77,1.16-0.7,4.44-3.05,7.86 c-2.14,3.13-7.12,9.56-7.4,10.83c-0.28,1.27,1.11,6.36,1.53,8.33c0.42,1.97,1.74,6.71,1.17,8.54s-3.43,6.85-10.75,6.76 c-5.82-0.07-7.51-1.78-7.7-2.82c-0.14-0.75-0.56-3.24-0.56-3.24s-4.79,2.96-7.04,4.08s-8.31,4.22-8.31,4.22s1.17,5.35,1.36,7.51 c0.19,2.16,0.86,5.25-0.28,7.32c-1.03,1.88-4.25,5.02-11.83,4.97c-5.92-0.04-7.41-1.88-8.35-3c-0.94-1.13-1.13-6.48-1.13-7.6 s-0.19-5.07-0.19-5.07s-8.02-0.4-12.86-0.75c-4.38-0.32-10.16-0.99-10.16-0.99s0.21,2.33,0.42,4.01c0.19,1.5,0.23,4.64-1.34,6.17 c-2.11,2.06-7.56,2.21-10.56,1.92c-3-0.28-7.18-1.83-8.4-4.55c-1.22-2.72,0.38-6.29,1.03-8.35c0.58-1.81,1.6-4.41,1.22-5.16 c-0.38-0.75-4.04-1.69-9.29-6.95c-5.26-5.26-12.13-23.52,3.28-36.23c15.49-12.76,43.81,1.1,45.31,2.04 C61.2,56.41,112.7,59.21,112.7,59.21z" fill="#BDCF47"/>
  <path d="M66.25,25.28C52.32,25.9,41.87,32.8,36.68,40.34c-3.1,4.5-4.65,7.74-4.65,7.74s4.81,0.14,9.15,2.46 c5,2.67,10.8,5.56,14.61,18.13c2.87,9.5,3.98,18.53,11.44,20.52c8.45,2.25,28.16,1.13,37.59-8.02s11.26-16.05,8.87-25.06 s-13.17-25.05-28.16-29.28C79.06,25,72.58,25,66.25,25.28z" fill="#6E823A"/>
  <path d="M111.93,51.32c-0.42-0.99-1.3-2.5-1.3-2.5s-0.07,2.05-0.25,3.13c-0.28,1.76-1.25,5.42-1.81,4.88 c-1-0.97-5.73-6.92-7.98-10.23c-1.71-2.52-7.6-9.11-7.74-11.26c-0.07-1.06,1.27-4.65,1.27-4.65s-1.22-0.7-2.35-1.34 c-0.88-0.49-2.16-1.03-2.16-1.03s-0.77,4.9-1.62,5.82c-0.75,0.81-5.32,2.6-8.87,3.94c-4.29,1.62-8.45,3.73-10,4.01 c-1.36,0.25-9.09-1.41-12-1.97c-3.66-0.7-9.18-2.26-10.45-3.17c-1.48-1.06-3.07-3.78-3.07-3.78s-0.89,0.61-1.78,1.31 c-0.88,0.69-2.02,2.06-2.02,2.06s2.31,2.32,2.44,3.18c0.18,1.2-1.27,2.83-2.46,4.38c-0.72,0.93-2.75,4.85-2.75,4.85 s0.97,0.09,2.15,0.63c1.23,0.57,2.38,1.16,2.38,1.16s2.97-6.9,4.9-7.53c1.65-0.54,6.3,0.99,9.68,1.69 c4.79,0.99,9.64,1.87,10.66,3.17c1.06,1.34,2.06,6.68,3.03,11.19C70.89,64.2,73.64,77.02,73,78c-0.63,0.99-5.7,0.63-8.59,0.28 c-2.45-0.3-6.41-1.76-6.41-1.76s0.58,2.11,0.77,2.67c0.28,0.81,1.16,3.06,1.16,3.06s5.67,2.5,22.42,0.95s25.03-12.96,27.38-18.02 c3.14-6.78,3.54-10.39,3.54-10.39S112.35,52.31,111.93,51.32z M96.65,73.21c-4.24,2.67-15.2,5.49-17.18,4.43 c-1.58-0.85-3.94-13.94-5.07-19.78c-0.72-3.74-2.45-9.42-1.41-11.19c0.7-1.2,4.79-2.99,7.81-4.4c2.87-1.33,6.97-3.13,8.17-2.99 c1.7,0.2,5.35,6.12,9.01,11.19c3.66,5.07,7.67,10.35,7.74,12.18C105.81,64.49,101.02,70.47,96.65,73.21z" fill="#484E23"/>
  <path d="M41.18,65.86c0.5,2.83-0.95,5.75-4.07,6.02c-2.56,0.22-4.59-1.57-5.09-4.4 c-0.5-2.83,1.14-5.49,3.68-5.94C38.22,61.09,40.68,63.02,41.18,65.86z" fill="#2A2B28"/>
  <path d="M22.82,66.11c0.07,2.84-2.42,5.69-5.5,5.11c-2.53-0.48-3.99-2.73-3.71-5.55 c0.29-2.82,2.59-4.9,5.15-4.65S22.75,63.15,22.82,66.11z" fill="#2A2B28"/>
  <path d="M30.77,76.59c1.16-0.79,3.1-2.67,4.36-1.06c1.27,1.62-0.92,3.1-2.18,4.01 c-1.27,0.92-4.08,3.17-6.12,3.17c-1.9,0-4.79-2.32-6.62-3.87c-1.49-1.26-2.18-2.89-1.34-3.87s2.14-0.62,3.24,0.35 c1.27,1.13,3.72,3.38,4.72,3.38C27.81,78.71,29.22,77.65,30.77,76.59z" fill="#2A2B28"/>
</svg>

<svg viewBox="0 0 128 128" xmlns="http://www.w3.org/2000/svg">
  <defs/>
  <path d="M112.7,59.21 C112.7,59.21 116.64,57 117.63,56.44 C118.62,55.88 122.23,53.62 123.54,55.6 C124.31,56.76 122.84,60.04 120.49,63.46 C118.35,66.59 113.37,73.02 113.09,74.29 C112.81,75.56 114.2,80.65 114.62,82.62 C115.04,84.59 116.36,89.33 115.79,91.16 C115.22,92.99 112.36,98.01 105.04,97.92 C99.22,97.85 97.53,96.14 97.34,95.1 C97.2,94.35 96.78,91.86 96.78,91.86 C96.78,91.86 91.99,94.82 89.74,95.94 C87.49,97.06 81.43,100.16 81.43,100.16 C81.43,100.16 82.6,105.51 82.79,107.67 C82.98,109.83 83.65,112.92 82.51,114.99 C81.48,116.87 78.26,120.01 70.68,119.96 C64.76,119.92 63.27,118.08 62.33,116.96 C61.39,115.83 61.2,110.48 61.2,109.36 C61.2,108.24 61.01,104.29 61.01,104.29 C61.01,104.29 52.99,103.89 48.15,103.54 C43.77,103.22 37.99,102.55 37.99,102.55 C37.99,102.55 38.2,104.88 38.41,106.56 C38.6,108.06 38.64,111.2 37.07,112.73 C34.96,114.79 29.51,114.94 26.51,114.65 C23.51,114.37 19.33,112.82 18.11,110.1 C16.89,107.38 18.49,103.81 19.14,101.75 C19.72,99.94 20.74,97.34 20.36,96.59 C19.98,95.84 16.32,94.9 11.07,89.64 C5.81,84.38 -1.06,66.12 14.35,53.41 C29.84,40.65 58.16,54.51 59.66,55.45 C61.2,56.41 112.7,59.21 112.7,59.21 Z" fill="#BDCF47"/>
  <path d="M66.25,25.28 C52.32,25.9 41.87,32.8 36.68,40.34 C33.58,44.84 32.03,48.08 32.03,48.08 C32.03,48.08 36.84,48.22 41.18,50.54 C46.18,53.21 51.98,56.1 55.79,68.67 C58.66,78.17 59.77,87.2 67.23,89.19 C75.68,91.44 95.39,90.32 104.82,81.17 C114.25,72.02 116.08,65.12 113.69,56.11 C111.3,47.1 100.52,31.06 85.53,26.83 C79.06,25 72.58,25 66.25,25.28 Z" fill="#6E823A"/>
  <path d="M111.93,51.32 C111.51,50.33 110.63,48.82 110.63,48.82 C110.63,48.82 110.56,50.87 110.38,51.95 C110.1,53.71 109.13,57.37 108.57,56.83 C107.57,55.86 102.84,49.91 100.59,46.6 C98.88,44.08 92.99,37.49 92.85,35.34 C92.78,34.28 94.12,30.69 94.12,30.69 C94.12,30.69 92.9,29.99 91.77,29.35 C90.89,28.86 89.61,28.32 89.61,28.32 C89.61,28.32 88.84,33.22 87.99,34.14 C87.24,34.95 82.67,36.74 79.12,38.08 C74.83,39.7 70.67,41.81 69.12,42.09 C67.76,42.34 60.03,40.68 57.12,40.12 C53.46,39.42 47.94,37.86 46.67,36.95 C45.19,35.89 43.6,33.17 43.6,33.17 C43.6,33.17 42.71,33.78 41.82,34.48 C40.94,35.17 39.8,36.54 39.8,36.54 C39.8,36.54 42.11,38.86 42.24,39.72 C42.42,40.92 40.97,42.55 39.78,44.1 C39.06,45.03 37.03,48.95 37.03,48.95 C37.03,48.95 38,49.04 39.18,49.58 C40.41,50.15 41.56,50.74 41.56,50.74 C41.56,50.74 44.53,43.84 46.46,43.21 C48.11,42.67 52.76,44.2 56.14,44.9 C60.93,45.89 65.78,46.77 66.8,48.07 C67.86,49.41 68.86,54.75 69.83,59.26 C70.89,64.2 73.64,77.02 73,78 C72.37,78.99 67.3,78.63 64.41,78.28 C61.96,77.98 58,76.52 58,76.52 C58,76.52 58.58,78.63 58.77,79.19 C59.05,80 59.93,82.25 59.93,82.25 C59.93,82.25 65.6,84.75 82.35,83.2 C99.1,81.65 107.38,70.24 109.73,65.18 C112.87,58.4 113.27,54.79 113.27,54.79 C113.27,54.79 112.35,52.31 111.93,51.32 Z M96.65,73.21 C92.41,75.88 81.45,78.7 79.47,77.64 C77.89,76.79 75.53,63.7 74.4,57.86 C73.68,54.12 71.95,48.44 72.99,46.67 C73.69,45.47 77.78,43.68 80.8,42.27 C83.67,40.94 87.77,39.14 88.97,39.28 C90.67,39.48 94.32,45.4 97.98,50.47 C101.64,55.54 105.65,60.82 105.72,62.65 C105.81,64.49 101.02,70.47 96.65,73.21 Z" fill="#484E23"/>
  <path d="M41.18,65.86 C41.68,68.69 40.23,71.61 37.11,71.88 C34.55,72.1 32.52,70.31 32.02,67.48 C31.52,64.65 33.16,61.99 35.7,61.54 C38.22,61.09 40.68,63.02 41.18,65.86 Z" fill="#2A2B28"/>
  <path d="M22.82,66.11 C22.89,68.95 20.4,71.8 17.32,71.22 C14.79,70.74 13.33,68.49 13.61,65.67 C13.9,62.85 16.2,60.77 18.76,61.02 C21.32,61.27 22.75,63.15 22.82,66.11 Z" fill="#2A2B28"/>
  <path d="M30.77,76.59 C31.93,75.8 33.87,73.92 35.13,75.53 C36.4,77.15 34.21,78.63 32.95,79.54 C31.68,80.46 28.87,82.71 26.83,82.71 C24.93,82.71 22.04,80.39 20.21,78.84 C18.72,77.58 18.03,75.95 18.87,74.97 C19.71,73.99 21.01,74.35 22.11,75.32 C23.38,76.45 25.83,78.7 26.83,78.7 C27.81,78.71 29.22,77.65 30.77,76.59 Z" fill="#2A2B28"/>
</svg>
